polaris-icons/icons/new-icons/SaveMinor.svg

<svg width="20" height="20" viewBox="0 0 20 20" fill="none" xmlns="http://www.w3.org/2000/svg">
<path d="M16.5 6.26C16.5 6.67421 16.1642 7.01 15.75 7.01C15.3358 7.01 15 6.67421 15 6.26V5.75C15 5.33579 14.6642 5 14.25 5L5.75 5C5.33579 5 5 5.33579 5 5.75V6.26C5 6.67421 4.66421 7.01 4.25 7.01C3.83579 7.01 3.5 6.67421 3.5 6.26V5.75C3.5 4.50736 4.50736 3.5 5.75 3.5H14.25C15.4926 3.5 16.5 4.50736 16.5 5.75V6.26Z" fill="#4A4A4A"/>
<path d="M10.75 7.51C10.75 7.09579 10.4142 6.76 10 6.76C9.58579 6.76 9.25 7.09579 9.25 7.51V14.1993L7.53033 12.4797C7.23744 12.1868 6.76256 12.1868 6.46967 12.4797C6.17678 12.7726 6.17678 13.2474 6.46967 13.5403L9.46967 16.5403C9.76256 16.8332 10.2374 16.8332 10.5303 16.5403L13.5303 13.5403C13.8232 13.2474 13.8232 12.7726 13.5303 12.4797C13.2374 12.1868 12.7626 12.1868 12.4697 12.4797L10.75 14.1993L10.75 7.51Z" fill="#4A4A4A"/>
</svg>

<svg viewBox="0 0 20 20" xmlns="http://www.w3.org/2000/svg"><path d="M16.5 6.26a.75.75 0 0 1-1.5 0v-.51a.75.75 0 0 0-.75-.75h-8.5a.75.75 0 0 0-.75.75v.51a.75.75 0 0 1-1.5 0v-.51a2.25 2.25 0 0 1 2.25-2.25h8.5a2.25 2.25 0 0 1 2.25 2.25v.51Z" fill="#5C5F62"/><path d="M10.75 7.51a.75.75 0 0 0-1.5 0v6.69l-1.72-1.72a.75.75 0 0 0-1.06 1.06l3 3a.75.75 0 0 0 1.06 0l3-3a.75.75 0 1 0-1.06-1.06l-1.72 1.72v-6.69Z" fill="#5C5F62"/></svg>
